;FLAVOR:Marlin
;TIME:9129
;Filament used: 3.77699m
;Layer height: 0.12
;MINX:20.574
;MINY:20.574
;MINZ:0.2
;MAXX:129.426
;MAXY:129.426
;MAXZ:2.24
;Generated with Cura_SteamEngine 4.13.0
M140 S50
M105
M190 S50
M104 S200
M105
M109 S200
M82 ;absolute extrusion mode
M201 X500.00 Y500.00 Z100.00 E5000.00 ;Setup machine max acceleration
M203 X500.00 Y500.00 Z10.00 E50.00 ;Setup machine max feedrate
M204 P500.00 R1000.00 T500.00 ;Setup Print/Retract/Travel acceleration
M205 X8.00 Y8.00 Z0.40 E5.00 ;Setup Jerk
M220 S100 ;Reset Feedrate
M221 S100 ;Reset Flowrate

G28 ;Home

G92 E0 ;Reset Extruder
G1 Z2.0 F3000 ;Move Z Axis up
G1 X10.1 Y20 Z0.28 F5000.0 ;Move to start position
G1 X10.1 Y100.0 Z0.28 F1500.0 E8 ;Draw the first line
G1 X10.4 Y100.0 Z0.28 F5000.0 ;Move to side a little
G1 X10.4 Y20 Z0.28 F1500.0 E15 ;Draw the second line
G92 E0 ;Reset Extruder
G1 Z2.0 F3000 ;Move Z Axis up

G92 E0
G92 E0
G1 F2700 E-6
;LAYER_COUNT:18
;LAYER:0
M107
M204 S500
M205 X8 Y8
G0 F7500 X36.693 Y36.338 Z0.2
;TYPE:SKIRT
G1 F2700 E0
G1 F1500 X36.917 Y36.117 E0.00994
G1 X37.634 Y35.432 E0.04128
G1 X38.403 Y34.715 E0.0745
G1 X38.655 Y34.487 E0.08523
G1 X39.387 Y33.847 E0.11596
G1 X40.177 Y33.173 E0.14877
G1 X40.419 Y32.972 E0.15871
G1 X41.254 Y32.302 E0.19254
G1 X42.035 Y31.693 E0.22383
G1 X42.283 Y31.505 E0.23366
G1 X43.122 Y30.889 E0.26655
G1 X43.979 Y30.28 E0.29977
G1 X44.222 Y30.113 E0.30909
G1 X45.068 Y29.547 E0.34125
G1 X45.99 Y28.95 E0.37595
G1 X46.26 Y28.781 E0.38602
G1 X47.113 Y28.264 E0.41754
G1 X47.961 Y27.765 E0.44862
G1 X48.247 Y27.602 E0.45903
G1 X49.065 Y27.153 E0.48851
G1 X50.13 Y26.589 E0.52659
G1 X50.407 Y26.447 E0.53642
G1 X51.288 Y26.013 E0.56746
G1 X52.189 Y25.584 E0.59899
G1 X52.485 Y25.449 E0.60927
G1 X53.437 Y25.031 E0.64212
G1 X54.43 Y24.611 E0.67619
G1 X54.725 Y24.491 E0.68625
G1 X55.654 Y24.131 E0.71773
G1 X56.617 Y23.772 E0.7502
G1 X56.93 Y23.66 E0.76071
G1 X57.941 Y23.319 E0.79442
G1 X58.891 Y23.012 E0.82597
G1 X59.201 Y22.917 E0.83621
G1 X60.163 Y22.638 E0.86786
G1 X61.091 Y22.381 E0.89829
G1 X61.398 Y22.301 E0.90831
G1 X62.456 Y22.042 E0.94273
G1 X63.43 Y21.818 E0.97431
G1 X63.735 Y21.752 E0.98417
G1 X64.737 Y21.553 E1.01644
G1 X65.769 Y21.363 E1.0496
G1 X66.07 Y21.312 E1.05925
G1 X67.134 Y21.148 E1.09326
G1 X68.163 Y21.005 E1.12609
G1 X68.49 Y20.964 E1.1365
G1 X69.503 Y20.855 E1.16869
G1 X70.461 Y20.764 E1.1991
G1 X70.76 Y20.74 E1.20858
G1 X71.789 Y20.672 E1.24116
G1 X72.885 Y20.615 E1.27584
G1 X73.219 Y20.603 E1.2864
G1 X74.151 Y20.583 E1.31586
G1 X75.209 Y20.574 E1.34929
G1 X75.533 Y20.576 E1.35952
G1 X76.559 Y20.599 E1.39195
G1 X77.64 Y20.638 E1.42613
G1 X77.966 Y20.655 E1.43645
G1 X78.92 Y20.719 E1.46666
G1 X79.989 Y20.804 E1.50054
G1 X80.305 Y20.833 E1.51057
G1 X81.189 Y20.929 E1.53866
G1 X82.315 Y21.068 E1.57451
G1 X82.776 Y21.132 E1.58922
G1 X83.682 Y21.273 E1.61819
G1 X84.661 Y21.438 E1.64956
G1 X84.963 Y21.493 E1.65926
G1 X85.794 Y21.657 E1.68602
G1 X87.06 Y21.927 E1.72692
G1 X87.363 Y21.996 E1.73674
G1 X88.301 Y22.226 E1.76726
G1 X89.397 Y22.512 E1.80305
G1 X89.711 Y22.599 E1.81334
G1 X90.624 Y22.868 E1.84342
G1 X91.626 Y23.176 E1.87654
G1 X91.933 Y23.275 E1.88673
G1 X92.862 Y23.592 E1.91775
G1 X93.899 Y23.961 E1.95253
G1 X94.206 Y24.075 E1.96287
G1 X95.096 Y24.423 E1.99307
G1 X96.127 Y24.842 E2.02823
G1 X96.415 Y24.964 E2.03812
G1 X97.269 Y25.341 E2.06761
G1 X98.294 Y25.811 E2.10324
G1 X98.569 Y25.942 E2.11287
G1 X99.463 Y26.384 E2.14438
G1 X100.38 Y26.854 E2.17694
G1 X100.654 Y26.999 E2.18673
G1 X101.506 Y27.468 E2.21746
G1 X102.406 Y27.978 E2.25015
G1 X102.686 Y28.142 E2.2604
G1 X103.583 Y28.687 E2.29357
G1 X104.446 Y29.228 E2.32575
G1 X104.705 Y29.395 E2.33549
G1 X105.416 Y29.869 E2.36249
G1 X106.477 Y30.6 E2.4032
G1 X106.741 Y30.788 E2.41344
G1 X107.479 Y31.331 E2.44239
G1 X108.316 Y31.963 E2.47553
G1 X108.556 Y32.15 E2.48514
G1 X109.343 Y32.78 E2.51699
G1 X110.179 Y33.47 E2.55124
G1 X110.434 Y33.688 E2.56184
G1 X111.199 Y34.361 E2.59404
G1 X111.926 Y35.018 E2.625
G1 X112.138 Y35.215 E2.63415
G1 X112.93 Y35.971 E2.66874
G1 X113.661 Y36.692 E2.70118
G1 X113.878 Y36.912 E2.71095
G1 X114.535 Y37.599 E2.74098
G1 X115.284 Y38.402 E2.77568
G1 X115.51 Y38.652 E2.78633
G1 X116.132 Y39.363 E2.81618
G1 X116.823 Y40.172 E2.84979
G1 X117.027 Y40.418 E2.85989
G1 X117.701 Y41.256 E2.89387
G1 X118.309 Y42.036 E2.92512
G1 X118.496 Y42.284 E2.93493
G1 X119.089 Y43.093 E2.96663
G1 X119.716 Y43.974 E3.0008
G1 X119.894 Y44.232 E3.0107
G1 X120.441 Y45.051 E3.04182
G1 X121.046 Y45.984 E3.07695
G1 X121.223 Y46.266 E3.08747
G1 X121.736 Y47.114 E3.11879
G1 X122.235 Y47.962 E3.14988
G1 X122.393 Y48.239 E3.15996
G1 X122.843 Y49.057 E3.18945
G1 X123.412 Y50.131 E3.22786
G1 X123.557 Y50.413 E3.23788
G1 X123.987 Y51.288 E3.26868
G1 X124.416 Y52.189 E3.30021
G1 X124.554 Y52.492 E3.31073
G1 X124.963 Y53.425 E3.34292
G1 X125.387 Y54.427 E3.3773
G1 X125.505 Y54.717 E3.38719
G1 X125.869 Y55.654 E3.41896
G1 X126.228 Y56.617 E3.45143
G1 X126.338 Y56.926 E3.46179
G1 X126.681 Y57.94 E3.49562
G1 X126.988 Y58.89 E3.52716
G1 X127.084 Y59.204 E3.53754
G1 X127.361 Y60.16 E3.56899
G1 X127.618 Y61.087 E3.59938
G1 X127.725 Y61.498 E3.6128
G1 X127.959 Y62.459 E3.64405
G1 X128.183 Y63.435 E3.67569
G1 X128.25 Y63.746 E3.68575
G1 X128.445 Y64.729 E3.71741
G1 X128.636 Y65.762 E3.7506
G1 X128.688 Y66.069 E3.76044
G1 X128.826 Y66.955 E3.78878
G1 X128.995 Y68.163 E3.82732
G1 X129.036 Y68.491 E3.83776
G1 X129.145 Y69.503 E3.86992
G1 X129.236 Y70.46 E3.9003
G1 X129.266 Y70.826 E3.9119
G1 X129.32 Y71.644 E3.9378
G1 X129.385 Y72.904 E3.97767
G1 X129.397 Y73.219 E3.98763
G1 X129.417 Y74.127 E4.01633
G1 X129.426 Y75.212 E4.05061
G1 X129.424 Y75.524 E4.06047
G1 X129.403 Y76.495 E4.09116
G1 X129.362 Y77.636 E4.12723
G1 X129.345 Y77.961 E4.13751
G1 X129.282 Y78.916 E4.16776
G1 X129.198 Y79.978 E4.20142
G1 X129.167 Y80.303 E4.21173
G1 X129.051 Y81.356 E4.24521
G1 X128.907 Y82.505 E4.28179
G1 X128.868 Y82.776 E4.29045
G1 X128.727 Y83.684 E4.31948
G1 X128.562 Y84.662 E4.35082
G1 X128.507 Y84.959 E4.36036
G1 X128.309 Y85.957 E4.39251
G1 X128.076 Y87.05 E4.42782
G1 X128.001 Y87.379 E4.43848
G1 X127.788 Y88.242 E4.46657
G1 X127.49 Y89.388 E4.50399
G1 X127.401 Y89.711 E4.51457
G1 X127.141 Y90.596 E4.54372
G1 X126.826 Y91.622 E4.57763
G1 X126.727 Y91.926 E4.58773
G1 X126.417 Y92.838 E4.61817
G1 X126.039 Y93.9 E4.65379
G1 X125.927 Y94.201 E4.66393
G1 X125.577 Y95.097 E4.69433
G1 X125.158 Y96.128 E4.72949
G1 X125.034 Y96.421 E4.73954
G1 X124.666 Y97.253 E4.76829
G1 X124.224 Y98.221 E4.80191
G1 X124.085 Y98.515 E4.81219
G1 X123.705 Y99.286 E4.83935
G1 X123.149 Y100.374 E4.87796
G1 X123.001 Y100.654 E4.88796
G1 X122.537 Y101.498 E4.91839
G1 X122.028 Y102.398 E4.95106
G1 X121.853 Y102.695 E4.96196
G1 X121.319 Y103.573 E4.99443
G1 X120.778 Y104.438 E5.02666
G1 X120.603 Y104.71 E5.03688
G1 X120.13 Y105.419 E5.06381
G1 X119.452 Y106.405 E5.10162
G1 X119.261 Y106.674 E5.11205
G1 X118.665 Y107.486 E5.14387
G1 X118.033 Y108.322 E5.17699
G1 X117.852 Y108.555 E5.18631
G1 X117.347 Y109.187 E5.21187
G1 X116.531 Y110.177 E5.25241
G1 X116.312 Y110.434 E5.26308
G1 X115.644 Y111.194 E5.29505
G1 X114.987 Y111.922 E5.32604
G1 X114.785 Y112.14 E5.33543
G1 X114.051 Y112.908 E5.36899
G1 X113.311 Y113.659 E5.40231
G1 X113.085 Y113.882 E5.41234
G1 X112.387 Y114.549 E5.44284
G1 X111.599 Y115.284 E5.47689
G1 X111.346 Y115.512 E5.48765
G1 X110.63 Y116.139 E5.51773
G1 X109.825 Y116.826 E5.55116
G1 X109.581 Y117.028 E5.56117
G1 X108.746 Y117.698 E5.595
G1 X107.965 Y118.307 E5.62629
G1 X107.716 Y118.496 E5.63617
G1 X106.888 Y119.103 E5.66861
G1 X106.023 Y119.718 E5.70215
G1 X105.778 Y119.887 E5.71155
G1 X104.932 Y120.453 E5.74371
G1 X104.01 Y121.05 E5.77842
G1 X103.74 Y121.219 E5.78848
G1 X102.887 Y121.736 E5.82
G1 X102.039 Y122.235 E5.85109
G1 X101.753 Y122.398 E5.86149
G1 X100.935 Y122.847 E5.89097
G1 X99.87 Y123.411 E5.92905
G1 X99.593 Y123.553 E5.93889
G1 X98.712 Y123.987 E5.96992
G1 X97.811 Y124.416 E6.00145
G1 X97.513 Y124.552 E6.0118
G1 X96.577 Y124.963 E6.0441
G1 X95.573 Y125.388 E6.07855
G1 X95.275 Y125.509 E6.08871
G1 X94.346 Y125.869 E6.12019
G1 X93.383 Y126.228 E6.15267
G1 X93.07 Y126.34 E6.16317
G1 X92.059 Y126.681 E6.19688
G1 X91.109 Y126.988 E6.22843
G1 X90.805 Y127.081 E6.23847
G1 X89.845 Y127.36 E6.27006
G1 X88.905 Y127.62 E6.30088
G1 X88.602 Y127.699 E6.31077
G1 X87.544 Y127.958 E6.34519
G1 X86.57 Y128.182 E6.37677
G1 X86.265 Y128.248 E6.38663
G1 X85.269 Y128.446 E6.41872
G1 X84.232 Y128.637 E6.45203
G1 X83.93 Y128.688 E6.46171
G1 X82.866 Y128.852 E6.49573
G1 X81.837 Y128.995 E6.52855
G1 X81.51 Y129.036 E6.53897
G1 X80.497 Y129.145 E6.57116
G1 X79.539 Y129.236 E6.60157
G1 X79.24 Y129.26 E6.61104
G1 X78.381 Y129.318 E6.63825
G1 X77.096 Y129.385 E6.6789
G1 X76.772 Y129.397 E6.68915
G1 X75.849 Y129.417 E6.71832
G1 X74.791 Y129.426 E6.75175
G1 X74.467 Y129.424 E6.76199
G1 X73.441 Y129.401 E6.79442
G1 X72.362 Y129.362 E6.82853
G1 X72.039 Y129.345 E6.83875
G1 X71.078 Y129.281 E6.86918
G1 X70.01 Y129.196 E6.90304
G1 X69.695 Y129.167 E6.91303
G1 X68.811 Y129.071 E6.94113
G1 X67.685 Y128.932 E6.97698
G1 X67.354 Y128.887 E6.98753
G1 X66.471 Y128.752 E7.01575
G1 X65.338 Y128.562 E7.05205
G1 X65.041 Y128.507 E7.0616
G1 X64.04 Y128.309 E7.09384
G1 X62.939 Y128.074 E7.12941
G1 X62.604 Y127.997 E7.14027
G1 X61.708 Y127.775 E7.16944
G1 X60.612 Y127.49 E7.20522
G1 X60.286 Y127.4 E7.21591
G1 X59.38 Y127.133 E7.24575
G1 X58.377 Y126.825 E7.2789
G1 X58.067 Y126.725 E7.2892
G1 X57.138 Y126.408 E7.32021
G1 X56.101 Y126.039 E7.35499
G1 X55.799 Y125.927 E7.36517
G1 X54.903 Y125.577 E7.39556
G1 X53.872 Y125.158 E7.43073
G1 X53.579 Y125.034 E7.44078
G1 X52.747 Y124.666 E7.46953
G1 X51.779 Y124.224 E7.50315
G1 X51.488 Y124.086 E7.51333
G1 X50.537 Y123.616 E7.54684
G1 X49.62 Y123.146 E7.5794
G1 X49.346 Y123.001 E7.5892
G1 X48.498 Y122.535 E7.61977
G1 X47.597 Y122.025 E7.65248
G1 X47.307 Y121.855 E7.66311
G1 X46.427 Y121.319 E7.69566
G1 X45.562 Y120.778 E7.7279
G1 X45.287 Y120.601 E7.73823
G1 X44.452 Y120.042 E7.76998
G1 X43.597 Y119.454 E7.80277
G1 X43.329 Y119.264 E7.81315
G1 X42.641 Y118.76 E7.8401
G1 X41.675 Y118.03 E7.87836
G1 X41.444 Y117.85 E7.88761
G1 X40.644 Y117.209 E7.92
G1 X39.817 Y116.526 E7.95389
G1 X39.566 Y116.312 E7.96431
G1 X38.806 Y115.644 E7.99628
G1 X38.078 Y114.987 E8.02727
G1 X37.861 Y114.785 E8.03664
G1 X37.069 Y114.029 E8.07123
G1 X36.338 Y113.308 E8.10368
G1 X36.117 Y113.083 E8.11364
G1 X35.432 Y112.367 E8.14495
G1 X34.714 Y111.597 E8.17822
G1 X34.485 Y111.343 E8.18902
G1 X33.847 Y110.613 E8.21966
G1 X33.173 Y109.823 E8.25247
G1 X32.973 Y109.582 E8.26236
G1 X32.299 Y108.744 E8.29634
G1 X31.691 Y107.964 E8.32759
G1 X31.505 Y107.717 E8.33736
G1 X30.891 Y106.88 E8.37016
G1 X30.281 Y106.022 E8.40342
G1 X30.105 Y105.768 E8.41319
G1 X29.633 Y105.063 E8.44
G1 X28.952 Y104.013 E8.47954
G1 X28.781 Y103.74 E8.48972
G1 X28.264 Y102.887 E8.52124
G1 X27.765 Y102.039 E8.55232
G1 X27.604 Y101.757 E8.56258
G1 X27.069 Y100.78 E8.59778
G1 X26.586 Y99.866 E8.63044
G1 X26.447 Y99.593 E8.64012
G1 X26.009 Y98.702 E8.6715
G1 X25.573 Y97.784 E8.70361
G1 X25.444 Y97.502 E8.71341
G1 X25.028 Y96.556 E8.74606
G1 X24.611 Y95.57 E8.77988
G1 X24.489 Y95.271 E8.79009
G1 X24.132 Y94.349 E8.82133
G1 X23.773 Y93.387 E8.85377
G1 X23.66 Y93.07 E8.86441
G1 X23.319 Y92.059 E8.89812
G1 X23.012 Y91.109 E8.92967
G1 X22.917 Y90.799 E8.93991
G1 X22.638 Y89.837 E8.97156
G1 X22.381 Y88.909 E9.00198
G1 X22.301 Y88.602 E9.01201
G1 X22.042 Y87.547 E9.04633
G1 X21.818 Y86.574 E9.07788
G1 X21.709 Y86.062 E9.09442
G1 X21.55 Y85.253 E9.12047
G1 X21.361 Y84.221 E9.15362
G1 X21.276 Y83.711 E9.16996
G1 X21.148 Y82.866 E9.19696
G1 X21.005 Y81.837 E9.22979
G1 X20.964 Y81.511 E9.24017
G1 X20.855 Y80.497 E9.2724
G1 X20.764 Y79.538 E9.30283
G1 X20.74 Y79.235 E9.31244
G1 X20.669 Y78.167 E9.34626
G1 X20.614 Y77.094 E9.38021
G1 X20.603 Y76.772 E9.39039
G1 X20.583 Y75.849 E9.41956
G1 X20.574 Y74.791 E9.45299
G1 X20.576 Y74.467 E9.46323
G1 X20.599 Y73.441 E9.49565
G1 X20.638 Y72.36 E9.52983
G1 X20.655 Y72.038 E9.54002
G1 X20.719 Y71.073 E9.57058
G1 X20.804 Y70.008 E9.60434
G1 X20.833 Y69.695 E9.61427
G1 X20.929 Y68.811 E9.64237
G1 X21.068 Y67.685 E9.67821
G1 X21.109 Y67.386 E9.68775
G1 X21.273 Y66.316 E9.72195
G1 X21.438 Y65.338 E9.75329
G1 X21.493 Y65.04 E9.76287
G1 X21.693 Y64.031 E9.79537
G1 X21.924 Y62.948 E9.83036
G1 X22.002 Y62.611 E9.84129
G1 X22.227 Y61.699 E9.87097
G1 X22.51 Y60.611 E9.90649
G1 X22.6 Y60.286 E9.91715
G1 X22.867 Y59.38 E9.94699
G1 X23.175 Y58.377 E9.98014
G1 X23.275 Y58.067 E9.99043
G1 X23.592 Y57.138 E10.02145
G1 X23.961 Y56.101 E10.05623
G1 X24.073 Y55.799 E10.06641
G1 X24.423 Y54.903 E10.0968
G1 X24.88 Y53.781 E10.13508
G1 X25.006 Y53.488 E10.14516
G1 X25.336 Y52.743 E10.1709
G1 X25.778 Y51.776 E10.2045
G1 X25.911 Y51.494 E10.21435
G1 X26.302 Y50.699 E10.24234
G1 X26.851 Y49.625 E10.28046
G1 X26.998 Y49.347 E10.29039
G1 X27.464 Y48.499 E10.32097
G1 X27.974 Y47.598 E10.35368
G1 X28.147 Y47.305 E10.36443
G1 X28.684 Y46.422 E10.39709
G1 X29.225 Y45.558 E10.4293
G1 X29.399 Y45.288 E10.43944
G1 X29.873 Y44.578 E10.46642
G1 X30.549 Y43.595 E10.50411
G1 X30.736 Y43.331 E10.51434
G1 X31.341 Y42.507 E10.54664
G1 X31.966 Y41.68 E10.57939
G1 X32.15 Y41.444 E10.58885
G1 X32.79 Y40.645 E10.62119
G1 X33.472 Y39.819 E10.65504
G1 X33.688 Y39.566 E10.66555
G1 X34.356 Y38.806 E10.69752
G1 X35.013 Y38.078 E10.72851
G1 X35.214 Y37.861 E10.73785
G1 X35.837 Y37.207 E10.76639
G1 X36.693 Y36.338 E10.80493
G0 F7500 X36.977 Y36.618
G1 F1500 X37.193 Y36.406 E10.8145
G1 X37.906 Y35.724 E10.84567
G1 X38.675 Y35.007 E10.87889
G1 X38.918 Y34.787 E10.88925
G1 X39.646 Y34.151 E10.9198
G1 X40.436 Y33.477 E10.95261
G1 X40.67 Y33.283 E10.96221
G1 X41.5 Y32.617 E10.99584
G1 X42.281 Y32.008 E11.02713
G1 X42.52 Y31.827 E11.0366
G1 X43.354 Y31.215 E11.06929
G1 X44.211 Y30.606 E11.10251
G1 X44.445 Y30.445 E11.11148
G1 X45.286 Y29.882 E11.14346
G1 X46.208 Y29.285 E11.17817
G1 X46.468 Y29.122 E11.18786
G1 X47.316 Y28.608 E11.2192
G1 X48.164 Y28.109 E11.25028
G1 X48.44 Y27.953 E11.2603
G1 X49.402 Y27.426 E11.29496
G1 X50.317 Y26.942 E11.32767
G1 X50.584 Y26.806 E11.33714
G1 X51.46 Y26.374 E11.368
G1 X52.361 Y25.945 E11.39953
G1 X52.647 Y25.815 E11.40946
G1 X53.593 Y25.399 E11.44211
G1 X54.586 Y24.979 E11.47618
G1 X54.87 Y24.864 E11.48586
G1 X55.793 Y24.506 E11.51714
G1 X56.756 Y24.147 E11.54961
G1 X57.058 Y24.039 E11.55975
G1 X57.923 Y23.746 E11.5886
G1 X59.014 Y23.393 E11.62483
G1 X59.313 Y23.301 E11.63472
G1 X60.27 Y23.024 E11.6662
G1 X61.198 Y22.767 E11.69662
G1 X61.494 Y22.689 E11.7063
G1 X62.545 Y22.432 E11.74048
G1 X63.519 Y22.208 E11.77206
G1 X63.814 Y22.144 E11.7816
G1 X64.81 Y21.946 E11.81369
G1 X65.842 Y21.756 E11.84684
G1 X66.131 Y21.707 E11.85611
G1 X67.189 Y21.544 E11.88993
G1 X68.218 Y21.401 E11.92276
G1 X68.533 Y21.362 E11.93278
G1 X69.541 Y21.254 E11.96482
G1 X70.499 Y21.163 E11.99522
G1 X70.787 Y21.139 E12.00435
G1 X71.809 Y21.071 E12.03672
G1 X72.905 Y21.014 E12.0714
G1 X73.228 Y21.002 E12.08161
G1 X74.155 Y20.983 E12.11091
G1 X75.213 Y20.974 E12.14434
G1 X75.525 Y20.976 E12.15419
G1 X76.544 Y20.999 E12.1864
G1 X77.625 Y21.038 E12.22058
G1 X77.939 Y21.054 E12.23051
G1 X78.888 Y21.117 E12.26057
G1 X79.957 Y21.202 E12.29445
G1 X80.261 Y21.231 E12.3041
G1 X81.308 Y21.346 E12.33738
G1 X82.266 Y21.465 E12.36788
G1 X82.715 Y21.528 E12.38221
G1 X83.616 Y21.667 E12.41101
G1 X84.595 Y21.832 E12.44238
G1 X84.885 Y21.886 E12.4517
G1 X85.883 Y22.084 E12.48385
G1 X86.976 Y22.318 E12.51917
G1 X87.268 Y22.385 E12.52864
G1 X88.2 Y22.613 E12.55895
G1 X89.296 Y22.899 E12.59474
G1 X89.598 Y22.983 E12.60465
G1 X90.506 Y23.25 E12.63455
G1 X91.508 Y23.558 E12.66768
G1 X91.804 Y23.653 E12.6775
G1 X92.728 Y23.968 E12.70834
G1 X93.765 Y24.337 E12.74312
G1 X94.061 Y24.448 E12.75311
G1 X94.946 Y24.794 E12.78314
G1 X95.977 Y25.213 E12.8183
G1 X96.254 Y25.33 E12.8278
G1 X96.952 Y25.637 E12.8519
G1 X98.127 Y26.175 E12.89273
G1 X98.393 Y26.301 E12.90203
G1 X99.281 Y26.74 E12.93333
G1 X100.198 Y27.21 E12.96589
G1 X100.461 Y27.35 E12.9753
G1 X101.309 Y27.816 E13.00588
G1 X102.209 Y28.326 E13.03856
G1 X102.479 Y28.484 E13.04845
G1 X103.37 Y29.026 E13.0814
